X:1
T: Knit the Pocky
C:
R:Reel
Q: 232
K:Dm
M:4/4
L:1/8
|:A|Dd d^c de fd|cA GF EG EC|Dd d^c de fg|fd e^c d2 dA|
Dd d^c de fd|cA GF EG EC|Dd d^c de fg|fd e^c d2 da|
de fg af df|ed cg ec ge|de fg af df|ec ge d2 dA|
de fg af df|ed cg ec ge|d2 d^c de fg|af ge d2 d:|
